X: 176
T: Aşkın Karanlık Yolunda
C: Mustafa Sunar
O: Turkey
F: http://compmusic.upf.edu/node/140
N: sultaniyegah--sarki--aksak--askin_karanlik--mustafa_sunar
N: makam= sultaniyegah
N: form= sarki
N: usul= aksak = 9/8
M: 9/8
L: 1/16
K: C _B ^c  
Q: 1/4=222
%%MIDI tuningsystem comma53
ded=c c4 cdcB B6 | B=c BAA4AB AGG6  | \
w:  ARANAĞME  |   | 
GAGF F4 FGFE E4 D2 | 
w:   | 
DE FGAB cdfe dcd6  | ded=c c4 cdcB B6 | 
w:   |   | 
B=c BAA4AB AGG6  | GAGF F4 FGFE E4 D2 | 
w:   |   | 
DE FGAG FEFE DCD6  | ded=c c4 cdcB B6 | 
w:   |  ARANAĞME  | 
B=c BAA4AB AGG6  | GAGF F4 FGFE E4 D2 | 
w:   |   | 
DE FGAB cdfe dcd6  | ded=c c4 cdcB B6 | 
w:   |   | 
B=c BAA4AB AGG6  | GAGF F4 FGFE E4 D2 | 
w:   |   | 
DE FGAG FEFE DCD6  | A4 d4 f4 e4 d2 | \
w:   |  Aş kın  ka ran  | 
c4d4c2 B2A6  | 
w:  lık yo lun *  da   | 
B4 G4 c2d2 e4 d2 | f2 e2d2 c2d4c2 B2A2  | \
w:  kaç  yıl dır  *  yal  |  nız  *  kal *  dım   SAZ  | 
A4 d4 f4 e4 d2 | c4d4c2 B2A6  | 
w:  Aş kın  ka ran  |  lık yo lun *  da   | 
B4 G4 c2d2 e4 d2 | f2 e2d2 c2d4GA B=cd2  | \
w:  kaç  yıl dır  *  yal  |  nız  *  kal *  dım   SAZ  | 
d2=c2 c4 c2B2 B6 | 
w:  Bir_ *  ı şık  *  yok   | 
B2 A2A4A2 G2G6  | F2E2 D4 E2F2 A4 E2 | \
w:  bir  *  yol cu  *  yok   |  her  *  ta raf *  tan   | 
F2 E2D2 C2D4GA B=cd2  | 
w:  bu *  nal *  dım   SAZ  | 
d2=c2 c4 c2B2 B6 | B2 A2A4A2 G2G6  | \
w:  Bir_ *  ı şık  *  yok   |  bir  *  yol cu  *  yok   | 
F2E2 D4 E2F2 A4 E2 | F2 E2D2 C2D4a6  | 
w:  her  *  ta raf *  tan   |  bu *  nal *  dım   SAZ  | 
g4 a4 a4 a6 | a2 b2a2 g2f2 e2f6  | a2b2 a2^g2 f2e2 d4 d'2 | \
w:  Gur bet  yo lu   |  pek_ *  u *  zun *  muş   |  va *  ra *  ma *  dım   | 
c'2 b2a2 ^g2a8z2  | 
w:  yo *  rul *  dum    | 
g4 g4 g4 _a4 g2 | f4f2 e2d2 cde6  | f2e2 d2c2 B2A2 G6 | \
w:  Öm rüm  sa bah  |  sız  şe *  bin *  *  de   |  yıl *  dız *  lar *  dan   | 
f2 e2d2 c2d4GA B=cd2  | 
w:  so *  rar *  dım   SAZ  | 
d2=c2 c4 c2B2 B6 | B2 A2A4A2 G2G6  | \
w:  Is *  sız  ka *  ran  |  lık  *  gön lüm *  de   | 
F2E2 D4 E2F2 A4 E2 | F2 E2D2 C2D4GA B=cd2  | 
w:  sev *  da lı *  mı   |  a *  rar *  dım   SAZ  | 
d2=c2 c4 c2B2 B6 | B2 A2A4A2 G2G6  | \
w:  Is *  sız  ka *  ran  |  lık  *  gön lüm *  de   | 
F2E2 D4 E2F2 A4 E2 | F2 E2D2 C2D8-D2  | 
w:  sev *  da lı *  mı   |  a *  rar *  dım    | 
|


